cats/face-lines.svg

<?xml version="1.0" encoding="UTF-8" standalone="no"?>
<!-- Uploaded to: SVG Repo, www.svgrepo.com, Transformed by: SVG Repo Mixer Tools -->

<svg
   width="698.67999"
   height="532"
   viewBox="0 0 20.9604 15.96"
   fill="none"
   stroke="#ffffff"
   version="1.1"
   id="svg8"
   sodipodi:docname="face-lines.svg"
   xmlns:inkscape="http://www.inkscape.org/namespaces/inkscape"
   xmlns:sodipodi="http://sodipodi.sourceforge.net/DTD/sodipodi-0.dtd"
   xmlns="http://www.w3.org/2000/svg"
   xmlns:svg="http://www.w3.org/2000/svg">
  <defs
     id="defs8" />
  <sodipodi:namedview
     id="namedview8"
     pagecolor="#ffffff"
     bordercolor="#000000"
     borderopacity="0.25"
     inkscape:showpageshadow="2"
     inkscape:pageopacity="0.0"
     inkscape:pagecheckerboard="0"
     inkscape:deskcolor="#d1d1d1">
    <inkscape:page
       x="0"
       y="0"
       width="20.9604"
       height="15.96"
       id="page1"
       margin="0"
       bleed="0" />
  </sodipodi:namedview>
  <g
     id="SVGRepo_iconCarrier"
     transform="translate(-1.52,-4.52)">
    <path
       d="m 19.0993,10.6602 c 1.112,1.3142 0.8807,2.9213 0.8808,4.3398 0,3.9062 -5.2669,5 -7.9801,5 -2.71323,0 -7.98006,-1.0938 -7.98006,-5 10e-6,-1.4185 -0.23119,-3.0256 0.88072,-4.3398 m 14.19864,0 C 18.9048,10.4303 18.6692,10.2094 18.384,10 m 0.7153,0.6602 c 0.7,0.4032 0.8788,-1.10551 0.8808,-1.5977 V 7.18761 c 0,-1.625 -1.1172,-2.1875 -2.0748,-2.1875 -0.9576,0 -2.8729,1.56239 -3.5113,1.56239 -0.7661,0 -0.9136,-0.15614 -2.394,-0.15614 -1.4803,0 -1.6279,0.15614 -2.39399,0.15614 C 8.9676,6.5625 7.05236,5 6.09476,5 5.13715,5 4.01995,5.5625 4.01995,7.1875 v 1.875 c 0.00193,0.49219 0.18077,2.0009 0.88071,1.5977 m 0,0 C 5.09519,10.4303 5.33082,10.2094 5.61599,10"
       stroke="#ffffff"
       stroke-width="0.96"
       stroke-linecap="round"
       id="path1" />
    <path
       d="m 12.8258,16 c 0,0.1726 -0.3611,0.3125 -0.8065,0.3125 -0.4453,0 -0.8064,-0.1399 -0.8064,-0.3125 0,-0.1726 0.3611,-0.3125 0.8064,-0.3125 0.4454,0 0.8065,0.1399 0.8065,0.3125 z"
       stroke="#ffffff"
       stroke-width="0.96"
       id="path2" />
    <path
       d="m 15.5,13.5938 c 0,0.4314 -0.2166,0.7812 -0.4839,0.7812 -0.2672,0 -0.4838,-0.3498 -0.4838,-0.7812 0,-0.4315 0.2166,-0.7813 0.4838,-0.7813 0.2673,0 0.4839,0.3498 0.4839,0.7813 z"
       stroke="#ffffff"
       stroke-width="0.96"
       id="path3" />
    <path
       d="m 9.5,13.5938 c 0,0.4314 -0.21664,0.7812 -0.48387,0.7812 -0.26724,0 -0.48387,-0.3498 -0.48387,-0.7812 0,-0.4315 0.21663,-0.7813 0.48387,-0.7813 0.26723,0 0.48387,0.3498 0.48387,0.7813 z"
       stroke="#ffffff"
       stroke-width="0.96"
       id="path4" />
    <path
       d="M 22.0004,15.4688 C 21.5165,15.1562 19.4197,14.375 18.6133,14.375"
       stroke="#ffffff"
       stroke-width="0.96"
       stroke-linecap="round"
       id="path5" />
    <path
       d="M 20.3871,17.9688 C 19.9033,17.6562 18.7742,16.875 17.9678,16.875"
       stroke="#ffffff"
       stroke-width="0.96"
       stroke-linecap="round"
       id="path6" />
    <path
       d="M 2,15.4688 C 2.48387,15.1562 4.58065,14.375 5.3871,14.375"
       stroke="#ffffff"
       stroke-width="0.96"
       stroke-linecap="round"
       id="path7" />
    <path
       d="M 3.61279,17.9688 C 4.09667,17.6562 5.2257,16.875 6.03215,16.875"
       stroke="#ffffff"
       stroke-width="0.96"
       stroke-linecap="round"
       id="path8" />
  </g>
</svg>

<!DOCTYPE svg PUBLIC "-//W3C//DTD SVG 1.1//EN" "http://www.w3.org/Graphics/SVG/1.1/DTD/svg11.dtd">
<!-- Uploaded to: SVG Repo, www.svgrepo.com, Transformed by: SVG Repo Mixer Tools -->
<svg width="800px" height="800px" viewBox="0 0 24 24" fill="none" xmlns="http://www.w3.org/2000/svg" stroke="#ffffff">
<g id="SVGRepo_bgCarrier" stroke-width="0"/>
<g id="SVGRepo_tracerCarrier" stroke-linecap="round" stroke-linejoin="round"/>
<g id="SVGRepo_iconCarrier"> <path d="M19.0993 10.6602C20.2113 11.9744 19.98 13.5815 19.9801 15C19.9801 18.9062 14.7132 20 12 20C9.28677 20 4.01994 18.9062 4.01994 15C4.01995 13.5815 3.78875 11.9744 4.90066 10.6602M19.0993 10.6602C18.9048 10.4303 18.6692 10.2094 18.384 10M19.0993 10.6602C19.7993 11.0634 19.9781 9.55469 19.9801 9.0625V7.18761C19.9801 5.56261 18.8629 5.00011 17.9053 5.00011C16.9477 5.00011 15.0324 6.5625 14.394 6.5625C13.6279 6.5625 13.4804 6.40636 12 6.40636C10.5197 6.40636 10.3721 6.5625 9.60601 6.5625C8.9676 6.5625 7.05236 5 6.09476 5C5.13715 5 4.01995 5.5625 4.01995 7.1875V9.0625C4.02188 9.55469 4.20072 11.0634 4.90066 10.6602M4.90066 10.6602C5.09519 10.4303 5.33082 10.2094 5.61599 10" stroke="#ffffff" stroke-width="0.9600000000000002" stroke-linecap="round"/> <path d="M12.8258 16C12.8258 16.1726 12.4647 16.3125 12.0193 16.3125C11.574 16.3125 11.2129 16.1726 11.2129 16C11.2129 15.8274 11.574 15.6875 12.0193 15.6875C12.4647 15.6875 12.8258 15.8274 12.8258 16Z" stroke="#ffffff" stroke-width="0.9600000000000002"/> <path d="M15.5 13.5938C15.5 14.0252 15.2834 14.375 15.0161 14.375C14.7489 14.375 14.5323 14.0252 14.5323 13.5938C14.5323 13.1623 14.7489 12.8125 15.0161 12.8125C15.2834 12.8125 15.5 13.1623 15.5 13.5938Z" stroke="#ffffff" stroke-width="0.9600000000000002"/> <path d="M9.5 13.5938C9.5 14.0252 9.28336 14.375 9.01613 14.375C8.74889 14.375 8.53226 14.0252 8.53226 13.5938C8.53226 13.1623 8.74889 12.8125 9.01613 12.8125C9.28336 12.8125 9.5 13.1623 9.5 13.5938Z" stroke="#ffffff" stroke-width="0.9600000000000002"/> <path d="M22.0004 15.4688C21.5165 15.1562 19.4197 14.375 18.6133 14.375" stroke="#ffffff" stroke-width="0.9600000000000002" stroke-linecap="round"/> <path d="M20.3871 17.9688C19.9033 17.6562 18.7742 16.875 17.9678 16.875" stroke="#ffffff" stroke-width="0.9600000000000002" stroke-linecap="round"/> <path d="M2 15.4688C2.48387 15.1562 4.58065 14.375 5.3871 14.375" stroke="#ffffff" stroke-width="0.9600000000000002" stroke-linecap="round"/> <path d="M3.61279 17.9688C4.09667 17.6562 5.2257 16.875 6.03215 16.875" stroke="#ffffff" stroke-width="0.9600000000000002" stroke-linecap="round"/> </g>
</svg>
